X: 41850
T: Violet Tulloch, Queen Of Lerwick
R: barndance
M: 4/4
K: Dmajor
z2|A3 B A F3|G3 A c e3|d3 F B d3|A3 G G F3|
E3 F G2 A2|A3 c e2 e<g|f3 A f3 e|d6:|
zf/g/|f<a-ab a2 g2|f3 A f e3|d3 e c3 A|B3 A A3
z|a3 b a2 e2|g3 f c2 c<d|B<g- g2 c<a- a2|d6
zf/g/|f<a-ab a2 g2|f3 A f e3|d3 B g3 f|f4 e2 e<Hf|
A3 B A F3|G3 A e g3|f3 A f3 e|d6||

